misc/icons/Mountain/16x16/apps/mint-dev-settings.svg

<svg xmlns="http://www.w3.org/2000/svg" width="16" height="16" version="1.1">
 <circle style="fill:#2196f3" cx="8" cy="8" r="8"/>
 <path style="fill:#ffffff" d="M 6.75,3 6.638672,4.316406 A 3.9285836,3.9285836 0 0 0 5.492188,4.980469 l -1.199219,-0.5625 -1.25,2.164062 1.08789,0.75586 A 3.9285836,3.9285836 0 0 0 4.070312,8 3.9285836,3.9285836 0 0 0 4.128902,8.666016 l -1.083984,0.751953 1.25,2.164062 1.193359,-0.560547 a 3.9285836,3.9285836 0 0 0 1.150391,0.658204 L 6.75,13 h 2.5 l 0.109375,-1.316406 a 3.9285836,3.9285836 0 0 0 1.148437,-0.664063 l 1.197266,0.5625 1.25,-2.164062 -1.085937,-0.75586 A 3.9285836,3.9285836 0 0 0 11.929688,8 3.9285836,3.9285836 0 0 0 11.873047,7.333984 l 1.083984,-0.751953 -1.25,-2.164062 -1.195312,0.560547 A 3.9285836,3.9285836 0 0 0 9.361328,4.320312 L 9.25,3 Z m 1.199219,3 a 1.9997665,2.0003497 0 0 1 0.002,0 1.9997665,2.0003497 0 0 1 0.04883,0 1.9997665,2.0003497 0 0 1 2,2 1.9997665,2.0003497 0 0 1 -2,2 1.9997665,2.0003497 0 0 1 -2,-2 1.9997665,2.0003497 0 0 1 1.949219,-2 z"/>
</svg>

<svg xmlns="http://www.w3.org/2000/svg" width="16" height="16" version="1.1">
 <rect style="fill:#7ec242" width="16" height="16" x="0" y="0" rx=".8" ry=".8"/>
 <path style="fill:#ffffff" d="M 6.75,2.9999 6.6406,4.3202 A 3.9286,3.9286 0 0 0 5.4883,4.9804 L 4.2949,4.4179 3.0449,6.582 4.1289,7.3339 A 3.9286,3.9286 0 0 0 4.0723,7.9998 3.9286,3.9286 0 0 0 4.1309,8.6619 L 3.045,9.4178 4.295,11.582 5.4923,11.02 A 3.9286,3.9286 0 0 0 6.6406,11.684 L 6.75,13 H 9.25 L 9.3594,11.679 A 3.9286,3.9286 0 0 0 10.512,11.019 L 11.705,11.582 12.955,9.4174 11.871,8.6654 A 3.9286,3.9286 0 0 0 11.928,7.999 3.9286,3.9286 0 0 0 11.869,7.3369 L 12.955,6.581 11.705,4.4169 10.508,4.9794 A 3.9286,3.9286 0 0 0 9.3591,4.3154 L 9.2497,2.999 H 6.7497 Z M 8,5.9999 C 9.1046,5.9999 10,6.8953 10,7.9999 10,9.1045 9.1046,9.9999 8,9.9999 6.8954,9.9999 6,9.1045 6,7.9999 6,6.8953 6.8954,5.9999 8,5.9999 Z"/>
</svg>
